brandFactory_export/1.Light/TV_Contenidos audiovisuales_1Light.svg

<?xml version="1.0" encoding="UTF-8"?>
<svg width="24px" height="24px" viewBox="0 0 24 24" version="1.1" xmlns="http://www.w3.org/2000/svg" xmlns:xlink="http://www.w3.org/1999/xlink">
    <title>1.Light/TV_Contenidos audiovisuales_1Light</title>
    <g id="Symbols" stroke="none" stroke-width="1" fill="none" fill-rule="evenodd">
        <g id="1.Light/TV_Contenidos-audiovisuales_1Light" fill="#5CB615" fill-rule="nonzero">
            <path d="M3.79831933,18.1092437 C2.54789916,18.1092437 1.58991597,17.7697479 0.941176471,17.1008403 C0.319327731,16.4554622 0.00336134454,15.5176471 0.00336134454,14.3176471 L0.00336134454,6.78487395 C0.00336134454,5.58487395 0.319327731,4.65378151 0.941176471,4.01848739 C1.58319328,3.35966387 2.54453782,3.02689076 3.79495798,3.02689076 L19.8218487,3.01680672 C21.0722689,3.01680672 22.0336134,3.34957983 22.6756303,4.00840336 C23.297479,4.64705882 23.6134454,5.57815126 23.6134454,6.77478992 L23.6134454,14.307563 C23.6134454,15.507563 23.297479,16.4453782 22.6756303,17.0907563 C22.0302521,17.7596639 21.0689076,18.0991597 19.8184874,18.0991597 L3.79831933,18.1092437 L3.79831933,18.1092437 Z M19.8252101,3.68907563 L3.79831933,3.69915966 C1.69747899,3.69915966 0.675630252,4.70756303 0.675630252,6.78487395 L0.675630252,14.3176471 C0.675630252,15.3394958 0.927731092,16.1159664 1.42521008,16.6336134 C1.9394958,17.1680672 2.73613445,17.4369748 3.79831933,17.4369748 L19.8252101,17.4268908 C20.8840336,17.4268908 21.6840336,17.1579832 22.1983193,16.6235294 C22.6957983,16.1092437 22.9478992,15.3294118 22.9478992,14.307563 L22.9478992,6.77478992 C22.9445378,4.69747899 21.9260504,3.68907563 19.8252101,3.68907563 Z M15.0857143,20.0722689 L8.52773109,20.0722689 C8.34285714,20.0722689 8.19159664,19.9210084 8.19159664,19.7361345 C8.19159664,19.5512605 8.34285714,19.4 8.52773109,19.4 L15.0857143,19.4 C15.2705882,19.4 15.4218487,19.5512605 15.4218487,19.7361345 C15.4218487,19.9210084 15.2705882,20.0722689 15.0857143,20.0722689 L15.0857143,20.0722689 Z" id="TV_Contenidos-audiovisuales_1Light"></path>
        </g>
    </g>
</svg>

<svg width="24" height="24" viewBox="0 0 24 24" xmlns="http://www.w3.org/2000/svg"><path d="M3.798 18.11c-1.25 0-2.208-.34-2.857-1.01-.622-.645-.938-1.582-.938-2.782V6.785c0-1.2.316-2.131.938-2.767.642-.658 1.604-.991 2.854-.991l16.027-.01c1.25 0 2.212.333 2.854.991.621.64.937 1.57.937 2.767v7.533c0 1.2-.316 2.137-.937 2.783-.646.669-1.607 1.008-2.858 1.008l-16.02.01zM19.825 3.69L3.798 3.7C1.698 3.7.676 4.707.676 6.784v7.533c0 1.021.252 1.798.75 2.316.513.534 1.31.803 2.372.803l16.027-.01c1.059 0 1.859-.269 2.373-.803.498-.515.75-1.295.75-2.316V6.775c-.003-2.078-1.022-3.086-3.123-3.086zm-4.74 16.382H8.529a.337.337 0 01-.336-.336c0-.185.15-.336.336-.336h6.558c.185 0 .336.151.336.336a.337.337 0 01-.336.336z" fill="#5CB615" fill-rule="nonzero"/></svg>
